X: 72
T: Senpolska efter Bryggarn
B: HSFs låtsamling
R: Polska
O: Delsbo, Hälsingland
S:Efter Mattias Blom
S:Efter Grubb Anders Jonsson
Z: LP
M: 3/4
L: 1/8
K: Am
A2 ^c>e d2| d>^c AB =c2-|c2 e>d d>B|{Bc}B>A AF D2 |
A2 ^c>e d2| d>^c AB =c2-|c2 e>d d>B|1 BA A4 :|2 BA A2 zG |
|:F2 {G}FE/F/ G>E|{EF}E>D D>F A>G|F2 {G}FE/F/ G>E |{EF}E>D D>F A>G |
F2 {G}FE/F/ G>E|1{EF}ED D2 zE:|2{EF}ED D4|

